X:766
T:Reel 766
M:4/4
K:Amin
L:1/8
A,>B, (3CB,A, C>E (3A,A,B, |A,2EA, G,A,E2|A,>B, (3CB,A, A>E (3A,A,B, |CDEF DFED:||2A,B,CD E2E^G|A2AG A2A2||GDDC D2D2|E>D (3DCD E2G2|AGBA A2GE|EDCB, A,2CD:|
